src/icons/hicolor/scalable/apps/yast-kdump.svg

<?xml version="1.0" encoding="UTF-8" standalone="no"?>
<svg
   xmlns:dc="http://purl.org/dc/elements/1.1/"
   xmlns:cc="http://creativecommons.org/ns#"
   xmlns:rdf="http://www.w3.org/1999/02/22-rdf-syntax-ns#"
   xmlns:svg="http://www.w3.org/2000/svg"
   xmlns="http://www.w3.org/2000/svg"
   xmlns:xlink="http://www.w3.org/1999/xlink"
   viewBox="0 0 128 128"
   style="display:inline;enable-background:new"
   version="1.0"
   id="svg11300"
   height="128"
   width="128">
  <title
     id="title4162">Adwaita Icon Template</title>
  <defs
     id="defs3">
    <linearGradient
       id="linearGradient883">
      <stop
         id="stop879"
         offset="0"
         style="stop-color:#c0bfbc;stop-opacity:1" />
      <stop
         style="stop-color:#deddda;stop-opacity:1"
         offset="0.03424256"
         id="stop891" />
      <stop
         id="stop893"
         offset="0.07142857"
         style="stop-color:#c0bfbc;stop-opacity:1;" />
      <stop
         style="stop-color:#c0bfbc;stop-opacity:1;"
         offset="0.9285714"
         id="stop889" />
      <stop
         style="stop-color:#deddda;stop-opacity:1"
         offset="0.96428573"
         id="stop887" />
      <stop
         id="stop881"
         offset="1"
         style="stop-color:#c0bfbc;stop-opacity:1" />
    </linearGradient>
    <linearGradient
       id="linearGradient851">
      <stop
         id="stop847"
         offset="0"
         style="stop-color:#deddda;stop-opacity:1;" />
      <stop
         id="stop849"
         offset="1"
         style="stop-color:#f6f5f4;stop-opacity:1" />
    </linearGradient>
    <linearGradient
       gradientTransform="translate(-3.75e-7,-3.9999996)"
       gradientUnits="userSpaceOnUse"
       y2="64"
       x2="120"
       y1="64"
       x1="8"
       id="linearGradient853"
       xlink:href="#linearGradient851" />
    <linearGradient
       gradientTransform="translate(-3.75e-7,-3.9999996)"
       gradientUnits="userSpaceOnUse"
       y2="72"
       x2="120"
       y1="72"
       x1="8"
       id="linearGradient885"
       xlink:href="#linearGradient883" />
  </defs>
  <metadata
     id="metadata4">
    <rdf:RDF>
      <cc:Work
         rdf:about="">
        <dc:format>image/svg+xml</dc:format>
        <dc:type
           rdf:resource="http://purl.org/dc/dcmitype/StillImage" />
        <dc:creator>
          <cc:Agent>
            <dc:title>GNOME Design Team</dc:title>
          </cc:Agent>
        </dc:creator>
        <dc:source />
        <cc:license
           rdf:resource="http://creativecommons.org/licenses/by-sa/4.0/" />
        <dc:title>Adwaita Icon Template</dc:title>
        <dc:subject>
          <rdf:Bag />
        </dc:subject>
        <dc:date />
        <dc:rights>
          <cc:Agent>
            <dc:title />
          </cc:Agent>
        </dc:rights>
        <dc:publisher>
          <cc:Agent>
            <dc:title />
          </cc:Agent>
        </dc:publisher>
        <dc:identifier />
        <dc:relation />
        <dc:language />
        <dc:coverage />
        <dc:description />
        <dc:contributor>
          <cc:Agent>
            <dc:title />
          </cc:Agent>
        </dc:contributor>
      </cc:Work>
      <cc:License
         rdf:about="http://creativecommons.org/licenses/by-sa/4.0/">
        <cc:permits
           rdf:resource="http://creativecommons.org/ns#Reproduction" />
        <cc:permits
           rdf:resource="http://creativecommons.org/ns#Distribution" />
        <cc:requires
           rdf:resource="http://creativecommons.org/ns#Notice" />
        <cc:requires
           rdf:resource="http://creativecommons.org/ns#Attribution" />
        <cc:permits
           rdf:resource="http://creativecommons.org/ns#DerivativeWorks" />
        <cc:requires
           rdf:resource="http://creativecommons.org/ns#ShareAlike" />
      </cc:License>
    </rdf:RDF>
  </metadata>
  <path
     id="rect840-5"
     d="m 16,20 c -4.432,0 -8.0000004,3.568 -8.0000004,8 v 80 c 0,4.432 3.5680004,8 8.0000004,8 h 96 c 4.432,0 8,-3.568 8,-8 V 28 c 0,-4.432 -3.568,-8 -8,-8 z m 0,8 h 96 v 80 H 16 Z"
     style="display:inline;opacity:1;fill:url(#linearGradient885);fill-opacity:1;stroke:none;stroke-width:1;stroke-linecap:butt;stroke-linejoin:round;stroke-miterlimit:4;stroke-dasharray:none;stroke-opacity:1;enable-background:new" />
  <path
     id="rect840"
     d="m 16,12 c -4.432,0 -8.0000004,3.568 -8.0000004,8 V 99.999999 C 7.9999996,104.432 11.568,108 16,108 h 96 c 4.432,0 8,-3.568 8,-8.000001 V 20 c 0,-4.432 -3.568,-8 -8,-8 z m 0,8 h 96 V 99.999999 H 16 Z"
     style="opacity:1;fill:url(#linearGradient853);fill-opacity:1;stroke:none;stroke-width:1;stroke-linecap:butt;stroke-linejoin:round;stroke-miterlimit:4;stroke-dasharray:none;stroke-opacity:1" />
  <rect
     y="20"
     x="16"
     height="80"
     width="96"
     id="rect845"
     style="opacity:1;fill:#241f31;fill-opacity:1;stroke:none;stroke-width:1;stroke-linecap:butt;stroke-linejoin:round;stroke-miterlimit:4;stroke-dasharray:none;stroke-opacity:1" />
  <rect
     y="24"
     x="20"
     height="72"
     width="88"
     id="rect845-3"
     style="display:inline;opacity:1;fill:#33d17a;fill-opacity:1;stroke:none;stroke-width:1;stroke-linecap:butt;stroke-linejoin:round;stroke-miterlimit:4;stroke-dasharray:none;stroke-opacity:1;enable-background:new" />
  <path
     id="path912"
     d="m 75.357422,33.009766 -8,40 -6.626953,-16.56836 -4.181641,4.181641 L 52.248047,52.023438 44.734375,63.291016 36.509766,34.505859 23.451172,60.623047 20,57.171875 v 9.148437 l 0.873047,-2.61914 3.675781,3.675781 10.941406,-21.882812 7.775391,27.21289 8.486328,-12.730469 3.699219,7.400391 3.818359,-3.818359 9.373047,23.43164 8,-40 L 82.646484,62 H 108 V 58 H 85.353516 Z"
     style="color:#000000;font-style:normal;font-variant:normal;font-weight:normal;font-stretch:normal;font-size:medium;line-height:normal;font-family:sans-serif;font-variant-ligatures:normal;font-variant-position:normal;font-variant-caps:normal;font-variant-numeric:normal;font-variant-alternates:normal;font-feature-settings:normal;text-indent:0;text-align:start;text-decoration:none;text-decoration-line:none;text-decoration-style:solid;text-decoration-color:#000000;letter-spacing:normal;word-spacing:normal;text-transform:none;writing-mode:lr-tb;direction:ltr;text-orientation:mixed;dominant-baseline:auto;baseline-shift:baseline;text-anchor:start;white-space:normal;shape-padding:0;clip-rule:nonzero;display:inline;overflow:visible;visibility:visible;opacity:1;isolation:auto;mix-blend-mode:normal;color-interpolation:sRGB;color-interpolation-filters:linearRGB;solid-color:#000000;solid-opacity:1;vector-effect:none;fill:#26a269;fill-opacity:1;fill-rule:nonzero;stroke:none;stroke-width:4;stroke-linecap:butt;stroke-linejoin:miter;stroke-miterlimit:4;stroke-dasharray:none;stroke-dashoffset:0;stroke-opacity:1;color-rendering:auto;image-rendering:auto;shape-rendering:auto;text-rendering:auto;enable-background:accumulate" />
  <path
     id="path910"
     d="M 56,96 72,24 H 20 v 72 z"
     style="opacity:0.2;fill:#ffffff;fill-opacity:1;stroke:none;stroke-width:1px;stroke-linecap:butt;stroke-linejoin:miter;stroke-opacity:1" />
</svg>

<?xml version="1.0" encoding="UTF-8"?>
<svg version="1.0" viewBox="0 0 128 128" xmlns="http://www.w3.org/2000/svg" xmlns:xlink="http://www.w3.org/1999/xlink">
<defs>
<linearGradient id="b" x1="8" x2="120" y1="64" y2="64" gradientTransform="translate(-3.75e-7 -4)" gradientUnits="userSpaceOnUse">
<stop stop-color="#deddda" offset="0"/>
<stop stop-color="#f6f5f4" offset="1"/>
</linearGradient>
<linearGradient id="a" x1="8" x2="120" y1="72" y2="72" gradientTransform="translate(-3.75e-7 -4)" gradientUnits="userSpaceOnUse">
<stop stop-color="#c0bfbc" offset="0"/>
<stop stop-color="#deddda" offset=".034243"/>
<stop stop-color="#c0bfbc" offset=".071429"/>
<stop stop-color="#c0bfbc" offset=".92857"/>
<stop stop-color="#deddda" offset=".96429"/>
<stop stop-color="#c0bfbc" offset="1"/>
</linearGradient>
</defs>
<path d="m16 20c-4.432 0-8 3.568-8 8v80c0 4.432 3.568 8 8 8h96c4.432 0 8-3.568 8-8v-80c0-4.432-3.568-8-8-8zm0 8h96v80h-96z" fill="url(#a)"/>
<path d="m16 12c-4.432 0-8 3.568-8 8v80c0 4.432 3.568 8 8 8h96c4.432 0 8-3.568 8-8v-80c0-4.432-3.568-8-8-8zm0 8h96v80h-96z" fill="url(#b)"/>
<rect x="16" y="20" width="96" height="80" fill="#241f31"/>
<rect x="20" y="24" width="88" height="72" fill="#33d17a"/>
<path d="m75.357 33.01-8 40-6.627-16.568-4.1816 4.1816l-4.3008-8.5996-7.5137 11.268-8.2246-28.785-13.059 26.117-3.4512-3.4512v9.1484l0.87305-2.6191 3.6758 3.6758 10.941-21.883 7.7754 27.213 8.4863-12.73 3.6992 7.4004 3.8184-3.8184 9.373 23.432 8-40 6.0039 15.01h25.354v-4h-22.646z" fill="#26a269"/>
<path d="m56 96 16-72h-52v72z" fill="#fff" opacity=".2"/>
</svg>
